build/img/icon-stopwatch.svg

<svg width="30" height="36" viewBox="0 0 30 36" fill="none" xmlns="http://www.w3.org/2000/svg">
<path d="M3.21969 11.9954L1.71875 10.4815C0.903322 9.65945 0.903322 8.32132 1.71875 7.49872C2.53418 6.67639 3.86109 6.67639 4.67651 7.49872L6.27904 9.11481C7.95075 7.94064 9.85641 7.12793 11.853 6.73792V4.64062H10.4586C10.0735 4.64062 9.76136 4.32587 9.76136 3.9375V2.10938C9.76136 0.946198 10.6996 0 11.853 0H17.4308C18.5843 0 19.5225 0.946198 19.5225 2.10938V3.9375C19.5225 4.32587 19.2104 4.64062 18.8253 4.64062H17.4308V6.73792C19.4272 7.12766 21.3331 7.94064 23.0048 9.11481L24.6074 7.49872C25.4225 6.67639 26.7494 6.67639 27.5651 7.49872C28.3806 8.32104 28.3806 9.65918 27.5651 10.4815L26.0642 11.9954C28.1447 14.6088 29.2837 17.864 29.2837 21.2344C29.2837 29.3761 22.7153 36 14.6419 36C6.56856 36 0.000196457 29.3761 0.000196457 21.2344C0.000196457 17.864 1.13918 14.6088 3.21969 11.9954ZM3.69059 8.49298C3.41851 8.21887 2.97648 8.21915 2.70467 8.49298C2.43313 8.76709 2.43313 9.21313 2.70467 9.48724L4.14542 10.9399C4.47007 10.6037 4.81051 10.2832 5.16457 9.97971L3.69059 8.49298ZM18.1281 2.10938C18.1281 1.72156 17.8154 1.40625 17.4308 1.40625H11.853C11.4685 1.40625 11.1558 1.72156 11.1558 2.10938V3.23438H18.1281V2.10938ZM13.2475 4.64062V6.53522C14.1716 6.44788 15.112 6.44788 16.0364 6.53522V4.64062H13.2475ZM26.5792 8.49298C26.3074 8.21915 25.8651 8.21887 25.5933 8.49298L24.1193 9.97971C24.4734 10.2832 24.8138 10.6037 25.1385 10.9399L26.5792 9.48724C26.8508 9.21313 26.8508 8.76709 26.5792 8.49298ZM14.6419 34.5938C21.9465 34.5938 27.8892 28.6007 27.8892 21.2344C27.8892 17.9849 26.7195 14.8541 24.5957 12.4181C24.0106 11.7471 23.3578 11.1341 22.6554 10.5952C20.8952 9.24445 18.8117 8.35538 16.6301 8.02386C15.9773 7.92526 15.3084 7.875 14.6419 7.875C13.9755 7.875 13.3066 7.92526 12.654 8.02386C10.4722 8.35538 8.3887 9.24445 6.6282 10.5952C5.92607 11.1341 5.27324 11.7471 4.68822 12.4181C2.56441 14.8541 1.39465 17.9849 1.39465 21.2344C1.39465 28.6007 7.33741 34.5938 14.6419 34.5938Z" fill="#00B2FF"/>
<path d="M14.6417 23.3438C13.4883 23.3438 12.55 22.3976 12.55 21.2344C12.55 20.3178 13.1329 19.5362 13.9445 19.2458V14.2031C13.9445 13.8148 14.2566 13.5 14.6417 13.5C15.0268 13.5 15.3389 13.8148 15.3389 14.2031V19.2458C16.1506 19.5362 16.7334 20.3178 16.7334 21.2344C16.7334 22.3976 15.7951 23.3438 14.6417 23.3438ZM14.6417 20.5312C14.2572 20.5312 13.9445 20.8466 13.9445 21.2344C13.9445 21.6222 14.2572 21.9375 14.6417 21.9375C15.0263 21.9375 15.3389 21.6222 15.3389 21.2344C15.3389 20.8466 15.0263 20.5312 14.6417 20.5312Z" fill="#00B2FF"/>
<path d="M7.21434 13.8163C7.22524 13.8034 7.23613 13.7905 7.24839 13.7784C7.26146 13.7649 7.27535 13.7528 7.28924 13.7408C8.5181 12.5147 10.0362 11.6075 11.6837 11.1169C12.0533 11.0071 12.4408 11.2197 12.5498 11.5921C12.6587 11.9645 12.4479 12.3557 12.0786 12.4655C10.8579 12.8292 9.71918 13.4576 8.74851 14.2967L9.21887 14.771C9.49095 15.0457 9.49095 15.4909 9.21887 15.7655C9.08269 15.9029 8.9043 15.9715 8.72563 15.9715C8.54724 15.9715 8.36885 15.9029 8.23267 15.7655L7.76123 15.2901C6.49969 16.7694 5.75044 18.5904 5.60446 20.5311H6.27499C6.6601 20.5311 6.97222 20.8462 6.97222 21.2343C6.97222 21.6226 6.6601 21.9374 6.27499 21.9374H5.60446C5.75044 23.8784 6.49969 25.6991 7.76123 27.1784L8.23267 26.703C8.50503 26.4286 8.94651 26.4286 9.21887 26.703C9.49122 26.9776 9.49122 27.4229 9.21887 27.6975L8.74742 28.1729C10.2143 29.4452 12.02 30.2008 13.9445 30.3482V29.6718C13.9445 29.2834 14.2566 28.9686 14.6417 28.9686C15.0268 28.9686 15.3389 29.2834 15.3389 29.6718V30.348C17.2634 30.2008 19.0691 29.4452 20.536 28.1729L20.0645 27.6975C19.7922 27.4229 19.7922 26.9776 20.0645 26.703C20.3369 26.4286 20.7784 26.4286 21.0507 26.703L21.5222 27.1784C22.7837 25.6991 23.533 23.8781 23.679 21.9374H23.0084C22.6233 21.9374 22.3112 21.6226 22.3112 21.2343C22.3112 20.8459 22.6233 20.5311 23.0084 20.5311H23.679C23.533 18.5904 22.7837 16.7694 21.5222 15.2901L21.0507 15.7655C20.9146 15.9029 20.7362 15.9715 20.5578 15.9715C20.3791 15.9715 20.2007 15.9029 20.0645 15.7655C19.7925 15.4909 19.7925 15.0457 20.0645 14.771L20.5349 14.2967C19.5642 13.4573 18.4255 12.8292 17.2048 12.4655C16.8355 12.3557 16.6247 11.9645 16.7337 11.5921C16.8426 11.2197 17.2299 11.0074 17.5997 11.1169C19.2469 11.6072 20.7645 12.5141 21.9931 13.7397C22.0075 13.752 22.0217 13.7647 22.035 13.7781C22.047 13.7902 22.0576 13.8028 22.0685 13.8155C24.0238 15.8056 25.1001 18.438 25.1001 21.2343C25.1001 24.0303 24.0238 26.6623 22.0691 28.6522C22.0582 28.6651 22.0473 28.678 22.035 28.6901C22.023 28.7025 22.0105 28.7132 21.998 28.7242C20.0245 30.6957 17.4145 31.7811 14.6417 31.7811C11.8691 31.7811 9.25918 30.696 7.28597 28.7247C7.27317 28.7135 7.26037 28.7025 7.24839 28.6901C7.2364 28.6783 7.22578 28.6654 7.21489 28.653C5.25966 26.6629 4.18332 24.0306 4.18332 21.2343C4.18332 18.4382 5.25966 15.8062 7.21434 13.8163Z" fill="#00B2FF"/>
<path d="M14.6416 12.0938C14.2568 12.0938 13.9444 11.7787 13.9444 11.3906C13.9444 11.0025 14.2568 10.6875 14.6416 10.6875C15.0265 10.6875 15.3389 11.0025 15.3389 11.3906C15.3389 11.7787 15.0265 12.0938 14.6416 12.0938Z" fill="#00B2FF"/>
</svg>

<svg width="30" height="36" fill="none" xmlns="http://www.w3.org/2000/svg"><path d="M3.22 11.995l-1.501-1.513a2.124 2.124 0 010-2.983 2.081 2.081 0 012.958 0l1.602 1.616a14.58 14.58 0 015.574-2.377V4.64h-1.394a.7.7 0 01-.698-.704V2.11C9.761.946 10.7 0 11.853 0h5.578c1.153 0 2.091.946 2.091 2.11v1.828a.7.7 0 01-.697.703h-1.394v2.097a14.577 14.577 0 015.574 2.377l1.602-1.616a2.081 2.081 0 012.958 0c.816.822.816 2.16 0 2.983l-1.5 1.513a14.829 14.829 0 013.219 9.24c0 8.14-6.569 14.765-14.642 14.765S0 29.376 0 21.234c0-3.37 1.14-6.625 3.22-9.239zm.47-3.502a.694.694 0 00-.985 0 .709.709 0 000 .994l1.44 1.453a14.87 14.87 0 011.02-.96L3.69 8.493zm14.438-6.384a.7.7 0 00-.697-.703h-5.578a.7.7 0 00-.697.703v1.125h6.972V2.11zm-4.88 2.532v1.894a14.875 14.875 0 012.788 0V4.641h-2.789zm13.331 3.852a.694.694 0 00-.986 0L24.12 9.98c.354.303.695.624 1.02.96l1.44-1.453a.708.708 0 000-.994zm-11.937 26.1c7.305 0 13.247-5.992 13.247-13.359 0-3.25-1.17-6.38-3.293-8.816a13.412 13.412 0 00-1.94-1.823 13.178 13.178 0 00-6.026-2.571 13.356 13.356 0 00-3.976 0 13.18 13.18 0 00-6.026 2.571 13.42 13.42 0 00-1.94 1.823 13.409 13.409 0 00-3.293 8.816c0 7.367 5.942 13.36 13.247 13.36z" fill="#00B2FF"/><path d="M14.642 23.344a2.103 2.103 0 01-2.092-2.11c0-.916.583-1.698 1.394-1.988v-5.043a.7.7 0 01.698-.703.7.7 0 01.697.703v5.043a2.112 2.112 0 011.394 1.988c0 1.164-.938 2.11-2.091 2.11zm0-2.813a.7.7 0 00-.697.703.7.7 0 00.697.703.7.7 0 00.697-.703.7.7 0 00-.697-.703z" fill="#00B2FF"/><path d="M7.214 13.816l.034-.038a10.479 10.479 0 014.435-2.662.704.704 0 01.395 1.349 9.065 9.065 0 00-3.33 1.832l.47.474a.708.708 0 010 .994.692.692 0 01-.985 0l-.472-.475a9.095 9.095 0 00-2.157 5.241h.671a.7.7 0 01.697.703.7.7 0 01-.697.703h-.67a9.094 9.094 0 002.156 5.241l.472-.475a.694.694 0 01.986 0 .707.707 0 010 .995l-.472.475a8.94 8.94 0 005.197 2.175v-.676a.7.7 0 01.698-.703.7.7 0 01.697.703v.676a8.94 8.94 0 005.197-2.175l-.472-.475a.707.707 0 010-.995.694.694 0 01.987 0l.471.475a9.096 9.096 0 002.157-5.24h-.67a.7.7 0 01-.698-.704.7.7 0 01.697-.703h.671a9.096 9.096 0 00-2.157-5.24l-.471.474a.691.691 0 01-.986 0 .708.708 0 010-.994l.47-.474a9.06 9.06 0 00-3.33-1.832.704.704 0 01-.471-.873.696.696 0 01.866-.475 10.475 10.475 0 014.393 2.623.693.693 0 01.042.038l.034.037a10.52 10.52 0 013.031 7.42 10.52 10.52 0 01-3.03 7.417l-.035.038-.037.034a10.343 10.343 0 01-7.356 3.057 10.341 10.341 0 01-7.356-3.056l-.038-.035-.033-.037a10.52 10.52 0 01-3.032-7.419 10.52 10.52 0 013.031-7.418z" fill="#00B2FF"/><path d="M14.642 12.094a.7.7 0 01-.698-.703.7.7 0 01.698-.704.7.7 0 01.697.704.7.7 0 01-.697.703z" fill="#00B2FF"/></svg>
